X:3
T:17. McMahon's reel (The Banshee)
C:composed by Fermanagh fiddle/flute player John McMahon
S:Mike Rafferty
N:More correctly titled McMahon's reel.
Z:Lesl
M:C|
L:1/8
K:G
DE|:G2GD EDBD|~G3B d2Bd|eged BAGA|1 BAGE EDDE:|2 BAGE EDDE|
|:G2GD EDBD|~G3B d2Bd|eged BAGA|1 BAGE EDDE:|2 BAGE EDd2||
|:eaag efge|dBBA B3d|eB~B2 egfd|eB{c}BA B3d|
eaag efge|dBBA B2Bd|eged BAGA|1 BAGE EDd2:|2 BAGE EDDE|G8||

